src/icons/ios-telephone-hang-up.svg

<?xml version="1.0" encoding="UTF-8"?>
<svg width="512px" height="512px" viewBox="0 0 512 512" version="1.1" xmlns="http://www.w3.org/2000/svg" xmlns:xlink="http://www.w3.org/1999/xlink">
    <!-- Generator: Sketch 62 (91390) - https://sketch.com -->
    <title>ios-telephone-hang-up</title>
    <desc>Created with Sketch.</desc>
    <g id="ios-telephone-hang-up" stroke="none" stroke-width="1" fill="none" fill-rule="evenodd">
        <path d="M99.6,321.915824 C118.8,322.115824 163.8,313.515824 181.5,295.915824 C185.6,291.815824 188.2,287.415824 189.3,282.515824 C192.5,268.415824 194.9,257.215824 198.4,253.915824 C200.3,252.015824 203.8,251.815824 211.8,251.215824 L213.2,251.115824 C235.3,249.615824 240.5,249.615824 249.9,249.815824 L252.3,249.915824 C253.9,249.915824 255.6,250.015824 256.9,250.015824 C265,250.115824 270.9,250.115824 292.9,251.515824 L294,251.615824 C304.5,252.215824 311.4,252.715824 314.2,255.115824 C316.9,257.515824 318.9,263.915824 320.9,277.615824 C323.4,294.115824 334.8,306.015824 354.7,313.115824 C370.6,318.715824 389.1,320.515824 405.4,322.315824 L406.9,322.415824 C421,323.915824 432.3,320.315824 440.5,312.215824 C449.7,303.015824 452.4,290.615824 453.8,284.015824 C453.9,283.515824 453.9,282.815824 454.2,282.415824 C457.5,267.715824 456.2,253.315824 450.7,242.915824 C442.3,227.315824 429.3,209.115824 379.3,194.515824 C336,181.815824 303.4,176.915824 258.8,176.315824 C216.8,175.815824 200.7,178.215824 165.3,183.815824 C125.8,190.215824 94.1,202.615824 78.8,218.015824 C64.6,232.115824 53.3,243.415824 56.6,279.015824 C59.7,316.115824 79.1,321.515824 99.6,321.915824 L99.6,321.915824 Z" id="Path" fill="#000000" fill-rule="nonzero"></path>
    </g>
</svg>

<svg xmlns="http://www.w3.org/2000/svg" width="512" height="512" viewBox="0 0 512 512">
    <path d="M99.6 321.916c19.2.2 64.2-8.4 81.9-26 4.1-4.1 6.7-8.5 7.8-13.4 3.2-14.1 5.6-25.3 9.1-28.6 1.9-1.9 5.4-2.1 13.4-2.7l1.4-.1c22.1-1.5 27.3-1.5 36.7-1.3l2.4.1c1.6 0 3.3.1 4.6.1 8.1.1 14 .1 36 1.5l1.1.1c10.5.6 17.4 1.1 20.2 3.5 2.7 2.4 4.7 8.8 6.7 22.5 2.5 16.5 13.9 28.4 33.8 35.5 15.9 5.6 34.4 7.4 50.7 9.2l1.5.1c14.1 1.5 25.4-2.1 33.6-10.2 9.2-9.2 11.9-21.6 13.3-28.2.1-.5.1-1.2.4-1.6 3.3-14.7 2-29.1-3.5-39.5-8.4-15.6-21.4-33.8-71.4-48.4-43.3-12.7-75.9-17.6-120.5-18.2-42-.5-58.1 1.9-93.5 7.5-39.5 6.4-71.2 18.8-86.5 34.2-14.2 14.1-25.5 25.4-22.2 61 3.1 37.1 22.5 42.5 43 42.9z"/>
</svg>
